static/images/settings_button_select.svg

<svg width="32" height="32" viewBox="0 0 32 32" fill="none" xmlns="http://www.w3.org/2000/svg">
<path fill-rule="evenodd" clip-rule="evenodd" d="M7.18662 13.5L14.7628 5.92389L15.7056 6.8667L8.12943 14.4428L7.18662 13.5Z" fill="#3369F3"/>
<path fill-rule="evenodd" clip-rule="evenodd" d="M9.70067 16.014L17.2768 8.43781L18.2196 9.38062L10.6435 16.9568L9.70067 16.014Z" fill="#3369F3"/>
<path fill-rule="evenodd" clip-rule="evenodd" d="M15.0433 21.3567L22.6195 13.7806L23.5623 14.7234L15.9861 22.2995L15.0433 21.3567Z" fill="#3369F3"/>
<path fill-rule="evenodd" clip-rule="evenodd" d="M17.5574 23.8706L25.1335 16.2945L26.0763 17.2373L18.5002 24.8134L17.5574 23.8706Z" fill="#3369F3"/>
<path fill-rule="evenodd" clip-rule="evenodd" d="M17.5574 23.8709C14.9423 26.486 10.7118 26.4954 8.10831 23.8919C5.50482 21.2884 5.51424 17.0579 8.12936 14.4428L7.18655 13.5C4.0484 16.6381 4.0371 21.7148 7.16129 24.839C10.2855 27.9632 15.3621 27.9518 18.5003 24.8137L17.5574 23.8709Z" fill="#3369F3"/>
<path fill-rule="evenodd" clip-rule="evenodd" d="M22.6195 13.7806L23.5623 14.7234C26.003 12.2826 26.0118 8.3341 23.5819 5.90417C21.152 3.47424 17.2035 3.48304 14.7627 5.92381L15.7055 6.86662C17.6233 4.94887 20.7257 4.94196 22.6349 6.85119C24.5441 8.76042 24.5372 11.8628 22.6195 13.7806Z" fill="#3369F3"/>
<path fill-rule="evenodd" clip-rule="evenodd" d="M9.70092 16.0144C7.95751 17.7578 7.95123 20.5782 9.68689 22.3138C11.4226 24.0495 14.2429 24.0432 15.9863 22.2998L15.0435 21.357C13.8231 22.5774 11.8489 22.5818 10.6339 21.3668C9.41894 20.1518 9.42334 18.1776 10.6437 16.9572L9.70092 16.0144Z" fill="#3369F3"/>
</svg>

<svg width="32" height="32" fill="none" xmlns="http://www.w3.org/2000/svg"><path fill-rule="evenodd" clip-rule="evenodd" d="m7.187 13.5 7.576-7.576.943.943-7.577 7.576-.942-.943ZM9.7 16.014l7.577-7.576.943.943-7.576 7.576-.943-.943ZM15.043 21.357l7.576-7.576.943.942-7.576 7.576-.943-.942ZM17.557 23.87l7.577-7.576.942.943-7.576 7.576-.943-.942Z" fill="#3369F3"/><path fill-rule="evenodd" clip-rule="evenodd" d="M17.557 23.87c-2.615 2.616-6.845 2.625-9.449.022-2.603-2.604-2.594-6.834.021-9.45l-.942-.942c-3.139 3.138-3.15 8.215-.026 11.339 3.125 3.124 8.201 3.113 11.34-.025l-.944-.943ZM22.62 13.78l.942.943c2.441-2.44 2.45-6.389.02-8.819-2.43-2.43-6.379-2.421-8.82.02l.944.943c1.917-1.918 5.02-1.925 6.929-.016 1.91 1.91 1.902 5.012-.016 6.93Z" fill="#3369F3"/><path fill-rule="evenodd" clip-rule="evenodd" d="M9.7 16.014c-1.742 1.744-1.749 4.564-.013 6.3 1.736 1.735 4.556 1.73 6.3-.014l-.944-.943a3.118 3.118 0 0 1-4.41.01 3.118 3.118 0 0 1 .01-4.41l-.942-.943Z" fill="#3369F3"/></svg>
